packages/clay-css/src/images/icons/marketplace.svg

<!--
* SPDX-FileCopyrightText: © 2020 Liferay, Inc. <https://liferay.com>
* SPDX-FileCopyrightText: © 2020 Contributors to the project Clay <https://github.com/liferay/clay/graphs/contributors>
*
* SPDX-License-Identifier: BSD-3-Clause
-->
<svg  viewBox="0 0 16 16" xmlns="http://www.w3.org/2000/svg">
<path class="lexicon-icon-outline" fill-rule="evenodd" clip-rule="evenodd" d="M2 0.0170738C1.65 0.0170738 1.33 0.24693 1.23 0.586718C1.23 0.586718 0 4.72413 0 4.79409C0 5.71351 0.38 6.543 1 7.13263V15.1476C1 15.6173 1.39 16.0071 1.86 16.0071H7.2V12.0096C7.2 10.7504 8.8 10.7504 8.8 12.0096V16.0071H14.16C14.63 16.0071 15 15.6273 15 15.1676V7.13263C15.62 6.543 16.01 5.72351 16 4.79409C16 4.73413 15.1 1.70602 14.77 0.576724C14.67 0.236936 14.36 0.00708008 14 0.00708008H2V0.0170738ZM13.31 7.9721C12.24 8.142 11.12 7.75224 10.4 6.93275C9.14 8.37185 6.86 8.37185 5.6 6.93275C4.88 7.75224 3.76 8.15199 2.69 7.9721V13.7885C2.69 14.0683 2.92 14.2882 3.19 14.2882H5.6V11.9996C5.6 8.48178 10.4 8.53175 10.4 11.9996V14.2882H12.82C13.09 14.2882 13.32 14.0683 13.32 13.7885V7.96211L13.31 7.9721ZM4.8 4.80408C4.8 6.93275 1.73 6.91276 1.6 4.92401L2.46 2.04581C2.54 1.79596 2.77 1.61607 3.03 1.61607H12.94C13.21 1.61607 13.44 1.78597 13.52 2.04581L14.38 4.92401C14.25 6.91276 11.2 6.93275 11.2 4.80408C11.2 3.73475 9.6 3.73475 9.6 4.80408C9.6 6.93275 6.4 6.93275 6.4 4.80408C6.4 3.73475 4.8 3.73475 4.8 4.80408Z" />
</svg>

<!--
* SPDX-FileCopyrightText: © 2020 Liferay, Inc. <https://liferay.com>
* SPDX-FileCopyrightText: © 2020 Contributors to the project Clay <https://github.com/liferay/clay/graphs/contributors>
*
* SPDX-License-Identifier: BSD-3-Clause
-->

<svg xmlns="http://www.w3.org/2000/svg" viewBox="0 0 16 16"><path class="lexicon-icon-outline" fill-rule="evenodd" clip-rule="evenodd" d="M2 .017c-.35 0-.67.23-.77.57C1.23.587 0 4.724 0 4.794c0 .92.38 1.749 1 2.339v8.015c0 .47.39.859.86.859H7.2v-3.998c0-1.259 1.6-1.259 1.6 0v3.998h5.36c.47 0 .84-.38.84-.84V7.133a3.16 3.16 0 0 0 1-2.339c0-.06-.9-3.088-1.23-4.217a.795.795 0 0 0-.77-.57H2v.01Zm11.31 7.955a3.23 3.23 0 0 1-2.91-1.04c-1.26 1.44-3.54 1.44-4.8 0-.72.82-1.84 1.22-2.91 1.04v5.816c0 .28.23.5.5.5H5.6v-2.289c0-3.517 4.8-3.467 4.8 0v2.289h2.42c.27 0 .5-.22.5-.5V7.962l-.01.01ZM4.8 4.804c0 2.129-3.07 2.109-3.2.12l.86-2.878a.61.61 0 0 1 .57-.43h9.91c.27 0 .5.17.58.43l.86 2.878c-.13 1.989-3.18 2.009-3.18-.12 0-1.07-1.6-1.07-1.6 0 0 2.129-3.2 2.129-3.2 0 0-1.07-1.6-1.07-1.6 0Z"/></svg>
